svgs/sharp-light/bracket-curly-right.svg

<svg xmlns="http://www.w3.org/2000/svg" viewBox="0 0 256 512"><!--! Font Awesome Pro 6.6.0 by @fontawesome - https://fontawesome.com License - https://fontawesome.com/license (Commercial License) Copyright 2024 Fonticons, Inc. --><path d="M176 32l16 0 0 16 0 137.4 59.3 59.3 4.7 4.7 0 13.3-4.7 4.7L192 326.6 192 464l0 16-16 0L48 480l-16 0 0-32 16 0 112 0 0-128 0-6.6 4.7-4.7L217.4 256l-52.7-52.7-4.7-4.7 0-6.6 0-128L48 64 32 64l0-32 16 0 128 0z"/></svg>

<svg xmlns="http://www.w3.org/2000/svg" viewBox="0 0 256 512"><!--! Font Awesome Pro 6.4.0 by @fontawesome - https://fontawesome.com License - https://fontawesome.com/license (Commercial License) Copyright 2023 Fonticons, Inc. --><path d="M176 32h16V48 185.4l59.3 59.3 4.7 4.7v13.3l-4.7 4.7L192 326.6V464v16H176 48 32V448H48 160V320v-6.6l4.7-4.7L217.4 256l-52.7-52.7-4.7-4.7V192 64H48 32V32H48 176z"/></svg>
